icon/cg/view-split.svg

<svg viewBox="0 0 24 24" fill="none" xmlns="http://www.w3.org/2000/svg" height="1em" width="1em">
  <path fill-rule="evenodd" clip-rule="evenodd" d="M2 8C2 6.34315 3.34315 5 5 5H19C20.6569 5 22 6.34315 22 8V16C22 17.6569 20.6569 19 19 19H5C3.34315 19 2 17.6569 2 16V8ZM13 7H19C19.5523 7 20 7.44771 20 8V16C20 16.5523 19.5523 17 19 17H13V7ZM11 7H5C4.44772 7 4 7.44772 4 8V16C4 16.5523 4.44772 17 5 17H11V7Z" fill="currentColor"/>
</svg>

<svg width="24" height="24" fill="none" xmlns="http://www.w3.org/2000/svg"><path fill-rule="evenodd" clip-rule="evenodd" d="M2 8a3 3 0 0 1 3-3h14a3 3 0 0 1 3 3v8a3 3 0 0 1-3 3H5a3 3 0 0 1-3-3V8Zm11-1h6a1 1 0 0 1 1 1v8a1 1 0 0 1-1 1h-6V7Zm-2 0H5a1 1 0 0 0-1 1v8a1 1 0 0 0 1 1h6V7Z" fill="currentColor"/></svg>
